X:489
T:Reel 489
M:4/4
K:Amaj
L:1/8
CA,A,C B,A,DFEC|DFEC B,CDB,|CA,A,C B,A,A,A (3AGA |ECEC B,2B,A,|CEFG ABAF|ECB,D CA,A,2|CE (3CB,A, CEB,G|AFEC B,A,A,2|A2cA EAcA|EAcA BFF2|A2cA  (3cAe cA|BFEd cAA2| (3AAA cA eAcA|EAcA BFF2|decA BGAF|EFAB cAA2|
